img/svg/intro-decoration.svg

<svg width="535" height="535" viewBox="0 0 535 535" fill="none" xmlns="http://www.w3.org/2000/svg">
<g clip-path="url(#clip0)">
<path d="M0.907699 521.021L2.7231 517.209L12.7078 522.292L17.791 532.277L13.9786 534.092L9.62168 525.378L0.907699 521.021Z" fill="#EFEAE1"/>
<path d="M0.907699 494.698L2.72311 490.885L30.3173 504.683L44.1145 532.277L40.3021 534.092L27.2311 507.769L0.907699 494.698Z" fill="#EFEAE1"/>
<path d="M0.907883 468.193L2.72329 464.38L47.9269 487.073L70.6194 532.277L66.8071 534.092L44.8407 490.159L0.907883 468.193Z" fill="#EFEAE1"/>
<path d="M0.907867 441.869L2.72327 438.057L65.5363 469.464L96.9428 532.277L93.1304 534.092L62.4501 472.55L0.907867 441.869Z" fill="#EFEAE1"/>
<path d="M-0.000152667 388.678L3.81221 386.863L20.514 420.448L83.1455 451.854L114.552 514.486L148.137 531.188L146.322 535L111.284 517.572L80.0593 454.941L17.4277 423.716L-0.000152667 388.678Z" fill="#EFEAE1"/>
<path d="M0.907898 342.022L2.7233 338.21L6.89876 340.207L38.1237 402.838L100.755 434.245L132.162 496.876L194.793 528.101L196.79 532.277L192.978 534.092L191.525 531.187L128.894 499.962L97.669 437.331L35.0375 406.106L3.81256 343.474L0.907898 342.022Z" fill="#EFEAE1"/>
<path d="M0.907898 315.699L2.7233 311.886L24.5082 322.597L55.7332 385.229L118.365 416.635L149.771 479.267L212.403 510.492L223.114 532.277L219.301 534.092L209.135 513.578L146.503 482.353L115.278 419.722L52.6469 388.497L21.422 325.865L0.907898 315.699Z" fill="#EFEAE1"/>
<path d="M0.907547 289.194L2.72295 285.382L42.1173 304.988L73.3422 367.62L135.974 399.026L167.38 461.658L230.012 492.883L249.618 532.277L245.806 534.092L226.744 495.969L164.112 464.744L132.888 402.112L70.256 370.887L39.0311 308.256L0.907547 289.194Z" fill="#EFEAE1"/>
<path d="M0.907532 262.871L2.72293 259.058L59.7267 287.379L90.9516 350.01L153.583 381.417L184.99 444.048L247.621 475.273L275.941 532.277L272.129 534.092L244.353 478.359L181.722 447.134L150.497 384.503L87.8655 353.278L56.6405 290.647L0.907532 262.871Z" fill="#EFEAE1"/>
<path d="M0.000152501 218.575L3.81253 216.578L14.705 238.544L77.3364 269.769L108.561 332.401L171.193 363.807L202.599 426.439L265.231 457.664L296.456 520.295L318.422 531.188L316.425 535L293.37 523.381L261.963 460.931L199.332 429.525L168.107 366.893L105.475 335.668L74.0687 273.037L11.6188 241.63L0.000152501 218.575Z" fill="#EFEAE1"/>
<path d="M-0.000152675 165.747L3.81219 163.75L32.3141 220.935L94.9456 252.16L126.171 314.791L188.802 346.198L220.209 408.829L282.84 440.054L314.065 502.686L371.25 531.188L369.253 535L310.979 505.772L279.572 443.322L216.941 411.916L185.716 349.284L123.084 318.059L91.6778 255.428L29.2279 224.021L-0.000152675 165.747Z" fill="#EFEAE1"/>
<path d="M0.907532 136.7L2.72296 132.888L18.6985 140.694L49.9235 203.326L112.555 234.551L143.78 297.182L206.411 328.589L237.818 391.22L300.449 422.445L331.674 485.077L394.306 516.301L402.112 532.277L398.3 534.092L391.038 519.569L328.588 488.163L297.182 425.713L234.55 394.306L203.325 331.675L140.694 300.45L109.287 237.818L46.8373 206.412L15.4308 143.962L0.907532 136.7Z" fill="#EFEAE1"/>
<path d="M0.907684 110.195L2.72308 106.383L36.3081 123.085L67.5331 185.716L130.165 216.941L161.389 279.572L224.021 310.979L255.427 373.61L318.059 404.835L349.284 467.467L411.915 498.692L428.617 532.277L424.805 534.092L408.648 501.96L346.198 470.553L314.791 408.103L252.16 376.697L220.935 314.065L158.303 282.84L126.897 220.209L64.4469 188.802L33.0404 126.352L0.907684 110.195Z" fill="#EFEAE1"/>
<path d="M0.907654 83.8718L2.72305 80.0594L53.9175 105.475L85.1425 168.107L147.774 199.332L178.999 261.963L241.63 293.37L273.037 356.001L335.668 387.226L366.893 449.858L429.525 481.082L454.941 532.277L451.128 534.092L426.257 484.35L363.626 452.944L332.401 390.494L269.769 359.087L238.544 296.456L175.913 265.231L144.506 202.599L82.0563 171.374L50.6498 108.743L0.907654 83.8718Z" fill="#EFEAE1"/>
<path d="M-9.16321e-05 48.2899L3.81229 46.4745L8.89545 56.6407L71.5269 87.8657L102.752 150.497L165.383 181.722L196.608 244.354L259.24 275.76L290.646 338.392L353.278 369.617L384.503 432.248L447.134 463.473L478.359 526.105L488.525 531.188L486.71 535L475.273 529.372L443.867 466.741L381.235 435.334L350.01 372.884L287.379 341.478L256.154 278.846L193.522 247.621L162.116 184.99L99.6657 153.765L68.2592 91.1334L5.62768 59.7269L-9.16321e-05 48.2899Z" fill="#EFEAE1"/>
<path d="M3.6308 2.90464L7.44318 0.907692L26.5049 39.0312L89.1364 70.2562L120.361 132.888L182.993 164.113L214.218 226.744L276.849 258.151L308.256 320.782L370.887 352.007L402.112 414.639L464.744 445.864L495.969 508.495L534.092 527.557L532.095 531.369L492.883 511.763L461.476 449.131L398.845 417.725L367.62 355.275L304.988 323.868L273.763 261.237L211.132 230.012L179.725 167.38L117.275 136.155L85.8687 73.5239L23.2372 42.1174L3.6308 2.90464Z" fill="#EFEAE1"/>
<path d="M30.1357 2.90464L33.7665 0.907693L44.1144 21.4218L106.746 52.6467L137.971 115.278L200.602 146.503L231.827 209.135L294.459 240.541L325.865 303.173L388.497 334.398L419.722 397.029L482.353 428.254L513.578 490.886L534.092 501.233L532.095 504.864L510.492 494.153L479.085 431.522L416.454 400.115L385.229 337.665L322.598 306.259L291.373 243.627L228.741 212.402L197.335 149.771L134.885 118.546L103.478 55.9145L40.8466 24.508L30.1357 2.90464Z" fill="#EFEAE1"/>
<path d="M56.4591 2.90464L60.2715 0.907694L61.7238 3.81234L124.355 35.0373L155.58 97.6688L218.212 128.894L249.437 191.525L312.068 222.932L343.475 285.563L406.106 316.788L437.331 379.42L499.963 410.645L531.188 473.276L534.092 474.729L532.095 478.541L528.101 476.544L496.695 413.912L434.063 382.506L402.838 320.056L340.207 288.649L308.982 226.018L246.351 194.793L214.944 132.162L152.494 100.937L121.088 38.305L58.4561 6.89853L56.4591 2.90464Z" fill="#EFEAE1"/>
<path d="M105.112 3.81233L106.927 -1.87116e-05L141.965 17.4279L173.19 80.0594L235.821 111.466L267.046 173.916L329.678 205.322L361.084 267.954L423.534 299.179L454.941 361.81L517.572 393.035L535 428.073L531.188 429.888L514.304 396.303L451.673 364.896L420.448 302.447L357.816 271.04L326.591 208.409L263.96 177.184L232.553 114.552L170.104 83.3271L138.697 20.6956L105.112 3.81233Z" fill="#EFEAE1"/>
<path d="M156.306 2.90464L160.119 0.907698L190.799 62.4499L253.431 93.8565L284.656 156.306L347.287 187.713L378.694 250.344L441.144 281.569L472.55 344.201L534.092 374.881L532.095 378.694L469.282 347.287L438.057 284.837L375.426 253.431L344.201 190.799L281.569 159.574L250.163 96.9427L187.713 65.7177L156.306 2.90464Z" fill="#EFEAE1"/>
<path d="M182.63 2.90465L186.442 0.9077L208.409 44.8405L271.04 76.247L302.265 138.697L364.897 170.103L396.303 232.735L458.753 263.96L490.159 326.591L534.092 348.558L532.095 352.37L486.892 329.678L455.667 267.228L393.035 235.821L361.81 173.19L299.179 141.965L267.772 79.3332L205.322 48.1082L182.63 2.90465Z" fill="#EFEAE1"/>
<path d="M209.135 2.90465L212.947 0.907701L226.018 27.2311L288.65 58.6376L319.874 121.088L382.506 152.494L413.912 215.126L476.362 246.35L507.769 308.982L534.092 322.053L532.095 325.865L504.501 312.068L473.276 249.618L410.645 218.212L379.42 155.58L316.788 124.355L285.382 61.7238L222.932 30.4988L209.135 2.90465Z" fill="#EFEAE1"/>
<path d="M235.458 2.90465L239.27 0.907702L243.627 9.62165L306.259 41.0282L337.484 103.478L400.115 134.885L431.522 197.516L493.972 228.741L525.378 291.373L534.092 295.73L532.095 299.542L522.111 294.459L490.886 232.009L428.254 200.602L397.029 137.971L334.398 106.746L302.991 44.1144L240.541 12.8894L235.458 2.90465Z" fill="#EFEAE1"/>
<path d="M275.215 3.81234L277.212 -1.12683e-05L323.868 23.4187L355.093 85.8687L417.725 117.275L449.131 179.907L511.581 211.132L535 257.788L531.188 259.785L508.495 214.399L445.864 182.993L414.639 120.361L352.007 89.1364L320.601 26.5049L275.215 3.81234Z" fill="#EFEAE1"/>
<path d="M328.044 3.81234L330.041 -8.95906e-06L341.478 5.80929L372.703 68.2592L435.334 99.6658L466.741 162.297L529.191 193.522L535 204.959L531.188 206.956L526.105 196.79L463.473 165.383L432.248 102.752L369.617 71.527L338.21 8.89548L328.044 3.81234Z" fill="#EFEAE1"/>
<path d="M361.629 2.90465L365.441 0.907707L390.312 50.6498L452.944 82.0563L484.35 144.688L534.092 169.559L532.095 173.371L481.082 147.774L449.857 85.1425L387.226 53.9176L361.629 2.90465Z" fill="#EFEAE1"/>
<path d="M388.134 2.90465L391.946 0.907709L407.922 33.0404L470.553 64.4469L501.96 127.078L534.092 143.054L532.095 146.866L498.692 130.165L467.467 67.5331L404.835 36.3081L388.134 2.90465Z" fill="#EFEAE1"/>
<path d="M414.457 2.90466L418.269 0.90771L425.531 15.431L488.163 46.8375L519.569 109.469L534.092 116.731L532.095 120.543L516.301 112.555L485.076 49.9237L422.445 18.6987L414.457 2.90466Z" fill="#EFEAE1"/>
<path d="M445.501 3.81235L447.316 -3.83279e-06L505.772 29.228L535 87.6841L531.188 89.4995L502.686 32.3142L445.501 3.81235Z" fill="#EFEAE1"/>
<path d="M498.329 3.81235L500.144 -1.52359e-06L523.381 11.6186L535 34.8558L531.188 36.6712L520.295 14.7048L498.329 3.81235Z" fill="#EFEAE1"/>
</g>
<defs>
<clipPath id="clip0">
<rect x="535" width="535" height="535" transform="rotate(90 535 0)" fill="white"/>
</clipPath>
</defs>
</svg>

<svg width="535" height="535" viewBox="0 0 535 535" fill="none" xmlns="http://www.w3.org/2000/svg"><g clip-path="url(#clip0)" fill="#EFEAE1"><path d="M.908 521.021l1.815-3.812 9.985 5.083 5.083 9.985-3.812 1.815-4.357-8.714-8.714-4.357zm0-26.323l1.815-3.813 27.594 13.798 13.797 27.594-3.812 1.815-13.07-26.323L.907 494.698zm0-26.505l1.815-3.813 45.204 22.693 22.692 45.204-3.812 1.815-21.966-43.933L.908 468.193z"/><path d="M.908 441.869l1.815-3.812 62.813 31.407 31.407 62.813-3.813 1.815-30.68-61.542L.908 441.869z"/><path d="M0 388.678l3.812-1.815 16.702 33.585 62.632 31.406 31.406 62.632 33.585 16.702-1.815 3.812-35.038-17.428-31.225-62.631-62.631-31.225L0 388.678z"/><path d="M.908 342.022l1.815-3.812 4.176 1.997 31.225 62.631 62.631 31.407 31.407 62.631 62.631 31.225 1.997 4.176-3.812 1.815-1.453-2.905-62.631-31.225-31.225-62.631-62.631-31.225-31.225-62.632-2.905-1.452z"/><path d="M.908 315.699l1.815-3.813 21.785 10.711 31.225 62.632 62.632 31.406 31.406 62.632 62.632 31.225 10.711 21.785-3.813 1.815-10.166-20.514-62.632-31.225-31.225-62.631-62.631-31.225-31.225-62.632L.908 315.699z"/><path d="M.908 289.194l1.815-3.812 39.394 19.606 31.225 62.632 62.632 31.406 31.406 62.632 62.632 31.225 19.606 39.394-3.812 1.815-19.062-38.123-62.632-31.225-31.224-62.632-62.632-31.225-31.225-62.631L.908 289.194z"/><path d="M.908 262.871l1.815-3.813 57.004 28.321 31.225 62.631 62.631 31.407 31.407 62.631 62.631 31.225 28.32 57.004-3.812 1.815-27.776-55.733-62.631-31.225-31.225-62.631-62.632-31.225-31.224-62.631L.908 262.871z"/><path d="M0 218.575l3.813-1.997 10.892 21.966 62.631 31.225 31.225 62.632 62.632 31.406 31.406 62.632 62.632 31.225 31.225 62.631 21.966 10.893-1.997 3.812-23.055-11.619-31.407-62.45-62.631-31.406-31.225-62.632-62.632-31.225-31.406-62.631-62.45-31.407L0 218.575z"/><path d="M0 165.747l3.812-1.997 28.502 57.185 62.632 31.225 31.225 62.631 62.631 31.407 31.407 62.631 62.631 31.225 31.225 62.632 57.185 28.502-1.997 3.812-58.274-29.228-31.407-62.45-62.631-31.406-31.225-62.632-62.632-31.225-31.406-62.631-62.45-31.407L0 165.747z"/><path d="M.908 136.7l1.815-3.812 15.975 7.806 31.225 62.632 62.632 31.225 31.225 62.631 62.631 31.407 31.407 62.631 62.631 31.225 31.225 62.632 62.632 31.224 7.806 15.976-3.812 1.815-7.262-14.523-62.45-31.406-31.406-62.45-62.632-31.407-31.225-62.631-62.631-31.225-31.407-62.632-62.45-31.406-31.406-62.45L.908 136.7z"/><path d="M.908 110.195l1.815-3.812 33.585 16.702 31.225 62.631 62.632 31.225 31.224 62.631 62.632 31.407 31.406 62.631 62.632 31.225 31.225 62.632 62.631 31.225 16.702 33.585-3.812 1.815-16.157-32.132-62.45-31.407-31.407-62.45-62.631-31.406-31.225-62.632-62.632-31.225-31.406-62.631-62.45-31.407-31.407-62.45L.908 110.195z"/><path d="M.908 83.872l1.815-3.813 51.194 25.416 31.225 62.632 62.632 31.225 31.225 62.631 62.631 31.407 31.407 62.631 62.631 31.225 31.225 62.632 62.632 31.224 25.416 51.195-3.813 1.815-24.871-49.742-62.631-31.406-31.225-62.45-62.632-31.407-31.225-62.631-62.631-31.225-31.407-62.632-62.45-31.225-31.406-62.631L.908 83.872z"/><path d="M0 48.29l3.812-1.816 5.083 10.167 62.632 31.225 31.225 62.631 62.631 31.225 31.225 62.632 62.632 31.406 31.406 62.632 62.632 31.225 31.225 62.631 62.631 31.225 31.225 62.632 10.166 5.083L486.71 535l-11.437-5.628-31.406-62.631-62.632-31.407-31.225-62.45-62.631-31.406-31.225-62.632-62.632-31.225-31.406-62.631-62.45-31.225-31.407-62.632L5.628 59.727 0 48.29z"/><path d="M3.63 2.905L7.444.908 26.505 39.03l62.631 31.225 31.225 62.632 62.632 31.225 31.225 62.631 62.631 31.407 31.407 62.631 62.631 31.225 31.225 62.632 62.632 31.225 31.225 62.631 38.123 19.062-1.997 3.812-39.212-19.606-31.407-62.632-62.631-31.406-31.225-62.45-62.632-31.407-31.225-62.631-62.631-31.225-31.407-62.632-62.45-31.225-31.406-62.631-62.632-31.407L3.631 2.905z"/><path d="M30.136 2.905l3.63-1.997 10.348 20.514 62.632 31.225 31.225 62.631 62.631 31.225 31.225 62.632 62.632 31.406 31.406 62.632 62.632 31.225 31.225 62.631 62.631 31.225 31.225 62.632 20.514 10.347-1.997 3.631-21.603-10.711-31.407-62.631-62.631-31.407-31.225-62.45-62.631-31.406-31.225-62.632-62.632-31.225-31.406-62.631-62.45-31.225-31.407-62.632-62.631-31.406L30.136 2.905z"/><path d="M56.46 2.905L60.271.908l1.452 2.904 62.631 31.225L155.58 97.67l62.632 31.225 31.225 62.631 62.631 31.407 31.407 62.631 62.631 31.225 31.225 62.632 62.632 31.225 31.225 62.631 2.904 1.453-1.997 3.812-3.994-1.997-31.406-62.632-62.632-31.406-31.225-62.45-62.631-31.407-31.225-62.631-62.631-31.225-31.407-62.631-62.45-31.225-31.406-62.632L58.456 6.899 56.46 2.905z"/><path d="M105.112 3.812L106.927 0l35.038 17.428 31.225 62.631 62.631 31.407 31.225 62.45 62.632 31.406 31.406 62.632 62.45 31.225 31.407 62.631 62.631 31.225L535 428.073l-3.812 1.815-16.884-33.585-62.631-31.407-31.225-62.449-62.632-31.407-31.225-62.631-62.631-31.225-31.407-62.632-62.449-31.225-31.407-62.631-33.585-16.884z"/><path d="M156.306 2.905l3.813-1.997 30.68 61.542 62.632 31.406 31.225 62.45 62.631 31.407 31.407 62.631 62.45 31.225 31.406 62.632 61.542 30.68-1.997 3.813-62.813-31.407-31.225-62.45-62.631-31.406-31.225-62.632-62.632-31.225-31.406-62.631-62.45-31.225-31.407-62.813z"/><path d="M182.63 2.905l3.812-1.997 21.967 43.932 62.631 31.407 31.225 62.45 62.632 31.406 31.406 62.632 62.45 31.225 31.406 62.631 43.933 21.967-1.997 3.812-45.203-22.692-31.225-62.45-62.632-31.407-31.225-62.631-62.631-31.225-31.407-62.632-62.45-31.225L182.63 2.905z"/><path d="M209.135 2.905l3.812-1.997 13.071 26.323 62.632 31.407 31.224 62.45 62.632 31.406 31.406 62.632 62.45 31.224 31.407 62.632 26.323 13.071-1.997 3.812-27.594-13.797-31.225-62.45-62.631-31.406-31.225-62.632-62.632-31.225-31.406-62.631-62.45-31.225-13.797-27.594z"/><path d="M235.458 2.905L239.27.908l4.357 8.714 62.632 31.406 31.225 62.45 62.631 31.407 31.407 62.631 62.45 31.225 31.406 62.632 8.714 4.357-1.997 3.812-9.984-5.083-31.225-62.45-62.632-31.407-31.225-62.631-62.631-31.225-31.407-62.632-62.45-31.225-5.083-9.984z"/><path d="M275.215 3.812L277.212 0l46.656 23.419 31.225 62.45 62.632 31.406 31.406 62.632 62.45 31.225L535 257.788l-3.812 1.997-22.693-45.386-62.631-31.406-31.225-62.632-62.632-31.225-31.406-62.631-45.386-22.693z"/><path d="M328.044 3.812L330.041 0l11.437 5.81 31.225 62.45 62.631 31.406 31.407 62.631 62.45 31.225L535 204.959l-3.812 1.997-5.083-10.166-62.632-31.407-31.225-62.631-62.631-31.225L338.21 8.895l-10.166-5.083z"/><path d="M361.629 2.905l3.812-1.997 24.871 49.742 62.632 31.406 31.406 62.632 49.742 24.871-1.997 3.812-51.013-25.597-31.225-62.632-62.631-31.224-25.597-51.013z"/><path d="M388.134 2.905l3.812-1.997 15.976 32.132 62.631 31.407 31.407 62.631 32.132 15.976-1.997 3.812-33.403-16.701-31.225-62.632-62.632-31.225-16.701-33.403z"/><path d="M414.457 2.905l3.812-1.997 7.262 14.523 62.632 31.407 31.406 62.631 14.523 7.262-1.997 3.812-15.794-7.988-31.225-62.631-62.631-31.225-7.988-15.794zm31.044.907L447.316 0l58.456 29.228L535 87.684l-3.812 1.816-28.502-57.186-57.185-28.502zm52.828 0L500.144 0l23.237 11.619L535 34.856l-3.812 1.815-10.893-21.966-21.966-10.893z"/></g><defs><clipPath id="clip0"><path transform="rotate(90 535 0)" fill="#fff" d="M535 0h535v535H535z"/></clipPath></defs></svg>
